src/assets/svgs/Logo.svg

<svg width="52" height="50" viewBox="0 0 52 50" fill="none" xmlns="http://www.w3.org/2000/svg">
<rect x="2" y="2" width="46" height="46" stroke="black" stroke-width="4"/>
<path d="M20.764 16.268C20.668 16.348 20.488 16.456 20.224 16.592C19.968 16.728 19.652 16.848 19.276 16.952C18.9 17.056 18.484 17.104 18.028 17.096C17.332 17.08 16.708 16.956 16.156 16.724C15.612 16.484 15.148 16.16 14.764 15.752C14.388 15.344 14.1 14.876 13.9 14.348C13.7 13.82 13.6 13.256 13.6 12.656C13.6 11.984 13.7 11.368 13.9 10.808C14.108 10.248 14.4 9.764 14.776 9.356C15.16 8.948 15.616 8.632 16.144 8.408C16.672 8.184 17.256 8.072 17.896 8.072C18.488 8.072 19.012 8.152 19.468 8.312C19.924 8.472 20.296 8.644 20.584 8.828L19.9 10.472C19.7 10.32 19.432 10.164 19.096 10.004C18.768 9.836 18.388 9.752 17.956 9.752C17.62 9.752 17.296 9.824 16.984 9.968C16.68 10.104 16.408 10.3 16.168 10.556C15.936 10.812 15.752 11.112 15.616 11.456C15.48 11.792 15.412 12.16 15.412 12.56C15.412 12.984 15.472 13.372 15.592 13.724C15.72 14.076 15.9 14.38 16.132 14.636C16.364 14.884 16.64 15.076 16.96 15.212C17.288 15.348 17.656 15.416 18.064 15.416C18.536 15.416 18.94 15.34 19.276 15.188C19.612 15.036 19.868 14.876 20.044 14.708L20.764 16.268ZM21.9672 12.596C21.9672 11.988 22.0832 11.412 22.3152 10.868C22.5472 10.324 22.8672 9.844 23.2752 9.428C23.6912 9.004 24.1712 8.672 24.7152 8.432C25.2592 8.192 25.8432 8.072 26.4672 8.072C27.0832 8.072 27.6632 8.192 28.2072 8.432C28.7512 8.672 29.2312 9.004 29.6472 9.428C30.0712 9.844 30.3992 10.324 30.6312 10.868C30.8712 11.412 30.9912 11.988 30.9912 12.596C30.9912 13.22 30.8712 13.804 30.6312 14.348C30.3992 14.892 30.0712 15.372 29.6472 15.788C29.2312 16.196 28.7512 16.516 28.2072 16.748C27.6632 16.98 27.0832 17.096 26.4672 17.096C25.8432 17.096 25.2592 16.98 24.7152 16.748C24.1712 16.516 23.6912 16.196 23.2752 15.788C22.8672 15.372 22.5472 14.892 22.3152 14.348C22.0832 13.804 21.9672 13.22 21.9672 12.596ZM23.7672 12.596C23.7672 12.988 23.8352 13.356 23.9712 13.7C24.1152 14.036 24.3112 14.336 24.5592 14.6C24.8152 14.856 25.1072 15.056 25.4352 15.2C25.7712 15.344 26.1352 15.416 26.5272 15.416C26.9032 15.416 27.2512 15.344 27.5712 15.2C27.8992 15.056 28.1832 14.856 28.4232 14.6C28.6632 14.336 28.8512 14.036 28.9872 13.7C29.1232 13.356 29.1912 12.988 29.1912 12.596C29.1912 12.196 29.1192 11.824 28.9752 11.48C28.8392 11.136 28.6472 10.836 28.3992 10.58C28.1592 10.316 27.8752 10.112 27.5472 9.968C27.2192 9.824 26.8632 9.752 26.4792 9.752C26.0952 9.752 25.7392 9.824 25.4112 9.968C25.0832 10.112 24.7952 10.316 24.5472 10.58C24.2992 10.836 24.1072 11.136 23.9712 11.48C23.8352 11.824 23.7672 12.196 23.7672 12.596ZM22.048 29.36L15.352 23.312L15.868 23.6L15.904 29H14.14V19.82H14.212L20.764 25.844L20.38 25.676L20.344 20.168H22.096V29.36H22.048ZM23.3745 29L27.3585 19.82H27.4545L31.4385 29H29.4225L26.8785 22.544L28.1385 21.68L25.0905 29H23.3745ZM26.0985 25.808H28.7505L29.3625 27.272H25.5585L26.0985 25.808ZM15.904 35.312L15.856 35.756L16.12 35.42L19 32.168H21.256L17.608 36.128L21.268 41H19.06L16.336 37.232L15.904 37.664V41H14.14V32.168H15.904V35.312ZM25.2652 32.168C25.8172 32.168 26.3092 32.24 26.7412 32.384C27.1732 32.52 27.5332 32.72 27.8212 32.984C28.1172 33.24 28.3412 33.552 28.4932 33.92C28.6452 34.28 28.7212 34.688 28.7212 35.144C28.7212 35.504 28.6652 35.864 28.5532 36.224C28.4492 36.584 28.2732 36.912 28.0252 37.208C27.7852 37.504 27.4652 37.744 27.0652 37.928C26.6652 38.104 26.1692 38.192 25.5772 38.192H24.3292V41H22.5892V32.168H25.2652ZM25.5652 36.512C25.8292 36.512 26.0492 36.468 26.2252 36.38C26.4012 36.292 26.5372 36.18 26.6332 36.044C26.7372 35.908 26.8092 35.768 26.8492 35.624C26.8972 35.472 26.9212 35.332 26.9212 35.204C26.9212 35.108 26.9052 34.988 26.8732 34.844C26.8492 34.692 26.7932 34.54 26.7052 34.388C26.6172 34.236 26.4812 34.108 26.2972 34.004C26.1212 33.9 25.8812 33.848 25.5772 33.848H24.3292V36.512H25.5652ZM27.1972 37.592L29.3812 41H27.3532L25.1212 37.64L27.1972 37.592ZM32.3929 38.252L29.1409 32.168H31.2889L33.5689 36.752L33.0529 36.788L35.2969 32.168H37.4449L34.1329 38.252V41H32.3929V38.252Z" fill="black"/>
<path d="M36.5941 40.136C36.5941 39.888 36.6821 39.68 36.8581 39.512C37.0421 39.344 37.2421 39.26 37.4581 39.26C37.6581 39.26 37.8461 39.344 38.0221 39.512C38.2061 39.68 38.2981 39.888 38.2981 40.136C38.2981 40.4 38.2061 40.612 38.0221 40.772C37.8461 40.924 37.6581 41 37.4581 41C37.2421 41 37.0421 40.924 36.8581 40.772C36.6821 40.612 36.5941 40.4 36.5941 40.136Z" fill="#FE6C02"/>
</svg>

<svg width="52" height="50" fill="none" xmlns="http://www.w3.org/2000/svg"><path stroke="#000" stroke-width="4" d="M2 2h47.149v46H2z"/><path d="M20.764 16.268c-.096.08-.276.188-.54.324a4.714 4.714 0 0 1-.948.36 4.384 4.384 0 0 1-1.248.144c-.696-.016-1.32-.14-1.872-.372a4.231 4.231 0 0 1-1.392-.972 4.297 4.297 0 0 1-.864-1.404c-.2-.528-.3-1.092-.3-1.692 0-.672.1-1.288.3-1.848.208-.56.5-1.044.876-1.452.384-.408.84-.724 1.368-.948a4.442 4.442 0 0 1 1.752-.336c.592 0 1.116.08 1.572.24.456.16.828.332 1.116.516l-.684 1.644a4.657 4.657 0 0 0-.804-.468 2.467 2.467 0 0 0-1.14-.252c-.336 0-.66.072-.972.216a2.527 2.527 0 0 0-.816.588 2.93 2.93 0 0 0-.552.9 2.916 2.916 0 0 0-.204 1.104c0 .424.06.812.18 1.164.128.352.308.656.54.912.232.248.508.44.828.576.328.136.696.204 1.104.204.472 0 .876-.076 1.212-.228.336-.152.592-.312.768-.48l.72 1.56Zm1.203-3.672c0-.608.116-1.184.348-1.728a4.632 4.632 0 0 1 2.4-2.436 4.292 4.292 0 0 1 1.752-.36c.616 0 1.196.12 1.74.36s1.024.572 1.44.996c.424.416.752.896.984 1.44.24.544.36 1.12.36 1.728 0 .624-.12 1.208-.36 1.752a4.438 4.438 0 0 1-.984 1.44 4.632 4.632 0 0 1-1.44.96 4.389 4.389 0 0 1-1.74.348 4.419 4.419 0 0 1-1.752-.348 4.632 4.632 0 0 1-1.44-.96 4.632 4.632 0 0 1-.96-1.44 4.419 4.419 0 0 1-.348-1.752Zm1.8 0c0 .392.068.76.204 1.104.144.336.34.636.588.9.256.256.548.456.876.6.336.144.7.216 1.092.216.376 0 .724-.072 1.044-.216.328-.144.612-.344.852-.6a3 3 0 0 0 .564-.9c.136-.344.204-.712.204-1.104 0-.4-.072-.772-.216-1.116a2.71 2.71 0 0 0-.576-.9 2.493 2.493 0 0 0-.852-.612 2.627 2.627 0 0 0-1.068-.216c-.384 0-.74.072-1.068.216a2.62 2.62 0 0 0-.864.612 2.71 2.71 0 0 0-.576.9 3.008 3.008 0 0 0-.204 1.116ZM22.048 29.36l-6.696-6.048.516.288.036 5.4H14.14v-9.18h.072l6.552 6.024-.384-.168-.036-5.508h1.752v9.192h-.048Zm1.327-.36 3.983-9.18h.096L31.44 29h-2.017l-2.544-6.456 1.26-.864L25.09 29h-1.715Zm2.724-3.192h2.651l.613 1.464h-3.805l.54-1.464Zm-10.195 9.504-.048.444.264-.336L19 32.168h2.256l-3.648 3.96L21.268 41H19.06l-2.724-3.768-.432.432V41H14.14v-8.832h1.764v3.144Zm9.361-3.144c.552 0 1.044.072 1.476.216.432.136.792.336 1.08.6.296.256.52.568.672.936.152.36.228.768.228 1.224 0 .36-.056.72-.168 1.08-.104.36-.28.688-.528.984-.24.296-.56.536-.96.72-.4.176-.896.264-1.488.264H24.33V41h-1.74v-8.832h2.676Zm.3 4.344c.264 0 .484-.044.66-.132.176-.088.312-.2.408-.336.104-.136.176-.276.216-.42.048-.152.072-.292.072-.42 0-.096-.016-.216-.048-.36a1.32 1.32 0 0 0-.168-.456 1.055 1.055 0 0 0-.408-.384c-.176-.104-.416-.156-.72-.156H24.33v2.664h1.236Zm1.632 1.08L29.381 41h-2.028l-2.232-3.36 2.076-.048Zm5.196.66-3.252-6.084h2.148l2.28 4.584-.516.036 2.244-4.62h2.148l-3.312 6.084V41h-1.74v-2.748Z" fill="#000"/><path d="M36.594 40.136c0-.248.088-.456.264-.624a.874.874 0 0 1 .6-.252c.2 0 .388.084.564.252a.811.811 0 0 1 .276.624.801.801 0 0 1-.276.636.85.85 0 0 1-.564.228.923.923 0 0 1-.6-.228.818.818 0 0 1-.264-.636Z" fill="#FE6C02"/></svg>
